X:1

T:White Star Clog

M:C|
L:1/8

S:White’s Unique Collection (1896), No. 146

Z:AK/Fiddler’s Companion

R:Clog

K: D

(F>.G) | {B}(A>^.G)(A>.F) D>FA>d | c>ed>B A>ce>g | f>de>c d>BA>F |

B2E2 E>F>G>^G | {B}A>^GA>F D>FA>d | c>ed>B A>ce>g | f>de>c d>BA>G |

F2 {c}d2D2 :: (c>d) | {f}(e>^.d)(e>.c) A>ce>g | g>fa>f d2 (e>f) | g>ab>a g>fe>d |

(3cde (3dcB A2 (c>.d) | {f}e>^de>c A>ce>g | g>fa>f d2 (e>f) | g>ab>a (3bec (3ABc |

d2 [A2f2][F2d2] :|

 

WHITE STAR REEL. American, Reel. G Major. Standard tuning. AABB. Al Smitley suggests the tune may possibly have been named for the clipper ship White Star, a name that appears in American Clipper Ships 1833-1858 by Howe and Matthews. Much more likely, however, is that the melody was named for the White Star Line, a steamship company launched in 1870, officially called the Oceanic Steam Navigation Company. The Titanic was a White Star ship, as were many other ships whose names ended with “ic” (Celtic and Adriatic). They were known for their comfortable, often luxurious accommodations, and, though this compromised speed, the ships were the favourites of the leisured classes. Cole (1000 Fiddle Tunes), 1940; pg. 41. Ryan’s Mammoth Collection, 1883; pg. 68.

